Yaru++/emotes/16/emote-love.svg

<svg height="16" width="16" xmlns="http://www.w3.org/2000/svg"><g stroke-width="1.142857"><path d="m15.999999 5.589717a4.3005702 4.3005702 0 0 0 -4.30857-4.293713c-1.565714 0-2.9371429.8342855-3.6914284 2.0822851a4.3085702 4.3085702 0 0 0 -3.6914275-2.0822851 4.3005702 4.3005702 0 0 0 -4.30857012 4.293713 4.2742845 4.2742845 0 0 0 1.35999962 3.129142h-.00114l6.5428523 6.281141 6.7405701-6.281141h-.0023a4.2731416 4.2731416 0 0 0 1.36-3.129142" fill="#f22c42"/><path d="m4.3080374 1.296879a4.3005702 4.3005702 0 0 0 -4.30803442 4.2924095 4.2742845 4.2742845 0 0 0 .0111607.2566963 4.3005702 4.3005702 0 0 1 4.29687372-3.9776774 4.3085702 4.3085702 0 0 1 3.6919632 2.0803565c.7542855-1.2479996 2.1262494-2.0803565 3.6919644-2.0803565a4.3005702 4.3005702 0 0 1 4.292409 4.0111595 4.2731416 4.2731416 0 0 0 .01563-.2901784 4.3005702 4.3005702 0 0 0 -4.308034-4.2924095c-1.565715 0-2.9376789.8323569-3.6919644 2.0803565a4.3085702 4.3085702 0 0 0 -3.6919682-2.0803565z" fill="#fff" opacity=".3"/><path d="m.01116368 5.2745564a4.3005702 4.3005702 0 0 0 -.0111607.3147321 4.2742845 4.2742845 0 0 0 1.35937452 3.1294633l6.5424089 6.2812482 6.7388376-6.2812482a4.2731416 4.2731416 0 0 0 1.359375-3.1294633 4.3005702 4.3005702 0 0 0 -.01563-.28125 4.2731416 4.2731416 0 0 1 -1.34375 2.8392849l-6.7388326 6.2812486-6.5424089-6.2812486a4.2742845 4.2742845 0 0 1 -1.34821382-2.872767z" opacity=".3"/></g></svg>

<?xml version="1.0" encoding="UTF-8" standalone="no"?>
<svg
   xmlns:dc="http://purl.org/dc/elements/1.1/"
   xmlns:cc="http://creativecommons.org/ns#"
   xmlns:rdf="http://www.w3.org/1999/02/22-rdf-syntax-ns#"
   xmlns:svg="http://www.w3.org/2000/svg"
   xmlns="http://www.w3.org/2000/svg"
   xmlns:sodipodi="http://sodipodi.sourceforge.net/DTD/sodipodi-0.dtd"
   xmlns:inkscape="http://www.inkscape.org/namespaces/inkscape"
   width="16"
   height="16"
   version="1.1"
   id="svg4"
   sodipodi:docname="emote-love.svg"
   inkscape:version="0.92.4 (5da689c313, 2019-01-14)">
  <metadata
     id="metadata10">
    <rdf:RDF>
      <cc:Work
         rdf:about="">
        <dc:format>image/svg+xml</dc:format>
        <dc:type
           rdf:resource="http://purl.org/dc/dcmitype/StillImage" />
      </cc:Work>
    </rdf:RDF>
  </metadata>
  <defs
     id="defs8" />
  <sodipodi:namedview
     pagecolor="#ffffff"
     bordercolor="#666666"
     borderopacity="1"
     objecttolerance="10"
     gridtolerance="10"
     guidetolerance="10"
     inkscape:pageopacity="0"
     inkscape:pageshadow="2"
     inkscape:window-width="1920"
     inkscape:window-height="1016"
     id="namedview6"
     showgrid="false"
     inkscape:zoom="14.75"
     inkscape:cx="-4.8813559"
     inkscape:cy="8"
     inkscape:window-x="0"
     inkscape:window-y="27"
     inkscape:window-maximized="1"
     inkscape:current-layer="svg4" />
  <path
     d="m 15.999999,5.589717 a 4.3005702,4.3005702 0 0 0 -4.30857,-4.293713 c -1.565714,0 -2.9371429,0.8342855 -3.6914284,2.0822851 A 4.3085702,4.3085702 0 0 0 4.3085731,1.296004 4.3005702,4.3005702 0 0 0 2.9787993e-6,5.589717 4.2742845,4.2742845 0 0 0 1.3600026,8.718859 h -0.00114 L 7.9017149,15 14.642285,8.718859 h -0.0023 a 4.2731416,4.2731416 0 0 0 1.36,-3.129142"
     id="path2"
     style="fill:#f22c42;fill-opacity:1;stroke-width:1.14285684"
     inkscape:connector-curvature="0" />
  <path
     style="opacity:0.3;fill:#ffffff;fill-opacity:1;stroke-width:1.14285684"
     d="M 4.3080374,1.296879 A 4.3005702,4.3005702 0 0 0 2.9787993e-6,5.5892885 4.2742845,4.2742845 0 0 0 0.01116368,5.8459848 4.3005702,4.3005702 0 0 1 4.3080374,1.8683074 4.3085702,4.3085702 0 0 1 8.0000006,3.9486639 C 8.7542861,2.7006643 10.12625,1.8683074 11.691965,1.8683074 A 4.3005702,4.3005702 0 0 1 15.984374,5.8794669 4.2731416,4.2731416 0 0 0 16.000004,5.5892885 4.3005702,4.3005702 0 0 0 11.69197,1.296879 c -1.565715,0 -2.9376789,0.8323569 -3.6919644,2.0803565 A 4.3085702,4.3085702 0 0 0 4.3080374,1.296879 Z"
     id="path823"
     inkscape:connector-curvature="0" />
  <path
     style="opacity:0.3;fill:#000000;fill-opacity:1;stroke-width:1.14285684"
     d="M 0.01116368,5.2745564 A 4.3005702,4.3005702 0 0 0 2.9787993e-6,5.5892885 4.2742845,4.2742845 0 0 0 1.3593775,8.7187518 L 7.9017864,15 14.640624,8.7187518 a 4.2731416,4.2731416 0 0 0 1.359375,-3.1294633 4.3005702,4.3005702 0 0 0 -0.01563,-0.28125 4.2731416,4.2731416 0 0 1 -1.34375,2.8392849 L 7.9017864,14.428572 1.3593775,8.1473234 A 4.2742845,4.2742845 0 0 1 0.01116368,5.2745564 Z"
     id="path828"
     inkscape:connector-curvature="0" />
</svg>
